Sources/FrostedUI/Resources/Icons.xcassets/sparkleFilled20.imageset/sparkle-filled-20.svg

<svg width="20" height="20" viewBox="0 0 20 20" fill="none" xmlns="http://www.w3.org/2000/svg" data-fui-icon="true">
  <path
    d="M14.5006 9.99963C14.1271 9.99963 13.7963 10.241 13.6813 10.5963L12.9264 12.9264L10.5963 13.6803C10.2411 13.7952 10.0007 14.1263 10.0006 14.4996C10.0006 14.8731 10.241 15.2039 10.5963 15.319L12.9264 16.0739L13.6813 18.4039C13.7963 18.7592 14.1272 18.9996 14.5006 18.9996C14.874 18.9995 15.205 18.7592 15.3199 18.4039L16.0739 16.0739L18.4039 15.319C18.7593 15.204 19.0006 14.8731 19.0006 14.4996C19.0005 14.1263 18.7592 13.7952 18.4039 13.6803L16.0739 12.9264L15.3199 10.5963C15.205 10.2411 14.874 9.99979 14.5006 9.99963ZM7.02795 0.999634C6.52607 0.999634 6.08079 1.32319 5.92542 1.80042L5.00159 4.63928C4.94562 4.8109 4.81093 4.94567 4.63928 5.00159L1.80042 5.92542C1.32319 6.08079 0.999632 6.52607 0.999634 7.02795C0.999731 7.52974 1.32327 7.97416 1.80042 8.12952L4.63928 9.05432C4.81095 9.11029 4.94568 9.24492 5.00159 9.41663L5.92542 12.2555C6.08082 12.7327 6.5261 13.0553 7.02795 13.0553C7.52969 13.0553 7.97405 12.7325 8.12952 12.2555L9.05432 9.41663C9.11024 9.24488 9.24489 9.11027 9.41663 9.05432L12.2555 8.12952C12.7326 7.97412 13.0552 7.52969 13.0553 7.02795C13.0553 6.52607 12.7327 6.08079 12.2555 5.92542L9.41663 5.00159C9.24495 4.94569 9.11031 4.81091 9.05432 4.63928L8.12952 1.80042C7.97415 1.32321 7.5298 0.999667 7.02795 0.999634Z"
    fill="currentColor"
  />
</svg>

<svg xmlns="http://www.w3.org/2000/svg" width="20" height="20" fill="none" data-fui-icon="true" viewBox="0 0 20 20"><path fill="currentColor" d="M14.5 10a.86.86 0 0 0-.819.596l-.755 2.33-2.33.754a.861.861 0 0 0 0 1.639l2.33.755.755 2.33a.86.86 0 0 0 1.639 0l.754-2.33 2.33-.755a.862.862 0 0 0 0-1.639l-2.33-.754-.754-2.33A.86.86 0 0 0 14.5 10M7.029 1a1.16 1.16 0 0 0-1.103.8l-.923 2.84a.57.57 0 0 1-.363.362L1.8 5.925a1.16 1.16 0 0 0 0 2.205l2.84.924c.171.056.306.19.362.363l.923 2.839a1.16 1.16 0 0 0 2.205 0l.924-2.84a.56.56 0 0 1 .363-.362l2.839-.924a1.158 1.158 0 0 0 0-2.205l-2.84-.923a.56.56 0 0 1-.362-.363L8.13 1.8c-.156-.477-.6-.8-1.102-.8"/></svg>
